images/icons/footer.svg

<svg width="42" height="32" viewBox="0 0 42 32" fill="none" xmlns="http://www.w3.org/2000/svg">
<path d="M40.0909 0.454102H1.90909C0.854764 0.454102 0 1.30874 0 2.36319V29.6358C0 30.6903 0.854764 31.5449 1.90909 31.5449H40.0909C41.1452 31.5449 42 30.6903 42 29.6358V2.36319C42 1.30874 41.1452 0.454102 40.0909 0.454102ZM28.8742 22.0041C27.2065 23.5663 24.9792 24.4625 22.7634 24.4625C22.7632 24.4625 22.7631 24.4625 22.7631 24.4625L22.7211 24.4622L18.9431 24.4625C14.2612 24.4625 10.452 20.6965 10.452 16.0674C10.452 11.2042 14.1165 7.5367 18.9759 7.5367H22.7237C24.9913 7.5367 27.2245 8.39923 28.8579 9.90321C30.5925 11.5002 31.5477 13.6893 31.5477 16.0675C31.5479 18.2804 30.5984 20.3887 28.8742 22.0041Z" fill="#172345"/>
<path d="M19.0005 9.21387C15.2667 9.21387 12.2292 12.2516 12.2292 15.9855C12.2292 19.7196 15.2667 22.7573 19.0005 22.7573C22.7326 22.7573 25.7689 19.7196 25.7689 15.9855C25.7689 12.2516 22.7326 9.21387 19.0005 9.21387ZM17.3478 20.2917C15.6147 19.626 14.3905 17.9508 14.3869 15.9855C14.3903 14.0212 15.6146 12.346 17.3478 11.6758V20.2917ZM20.6511 20.2917V11.6758C22.3837 12.3425 23.6112 14.0213 23.6149 15.9855C23.6112 17.9508 22.3837 19.6259 20.6511 20.2917Z" fill="#172345"/>
</svg>

<svg width="42" height="32" fill="none" xmlns="http://www.w3.org/2000/svg"><path d="M40.09.454H1.91A1.91 1.91 0 000 2.364v27.272a1.91 1.91 0 001.91 1.909h38.18a1.91 1.91 0 001.91-1.91V2.364a1.91 1.91 0 00-1.91-1.91zm-11.216 21.55c-1.668 1.562-3.895 2.458-6.11 2.458h-3.821c-4.682 0-8.491-3.765-8.491-8.395 0-4.863 3.665-8.53 8.524-8.53h3.748c2.267 0 4.5.862 6.134 2.366 1.735 1.597 2.69 3.786 2.69 6.164 0 2.213-.95 4.322-2.674 5.937z" fill="#172345"/><path d="M19 9.214a6.78 6.78 0 00-6.77 6.771A6.78 6.78 0 0019 22.758c3.733 0 6.769-3.037 6.769-6.772 0-3.733-3.036-6.771-6.768-6.771zm-1.652 11.078a4.616 4.616 0 01-2.961-4.307 4.626 4.626 0 012.96-4.31v8.617zm3.303 0v-8.616a4.627 4.627 0 012.964 4.31 4.62 4.62 0 01-2.964 4.306z" fill="#172345"/></svg>
